brandFactory_export/1.Light/Focus enfoque_1Light.svg

<?xml version="1.0" encoding="UTF-8"?>
<svg width="24px" height="24px" viewBox="0 0 24 24" version="1.1" xmlns="http://www.w3.org/2000/svg" xmlns:xlink="http://www.w3.org/1999/xlink">
    <title>1.Light/Focus enfoque_1Light</title>
    <g id="Symbols" stroke="none" stroke-width="1" fill="none" fill-rule="evenodd">
        <g id="1.Light/Focus-enfoque_1Light" fill="#5CB615" fill-rule="nonzero">
            <path d="M12.4033613,20.1008403 L12.4033613,17.2336134 C12.4033613,16.9613445 12.1815126,16.7428571 11.9092437,16.7428571 C11.6369748,16.7428571 11.4151261,16.9613445 11.4151261,17.2336134 L11.4151261,20.107563 C9.52605042,20.0638655 3.99327731,19.3277311 3.55966387,12.5714286 L6.45378151,12.5714286 C6.72605042,12.5714286 6.94789916,12.3529412 6.94789916,12.0806723 C6.94789916,11.8084034 6.72605042,11.589916 6.45378151,11.589916 L3.52268908,11.589916 C3.6,4.10084034 9.5394958,3.42857143 11.4151261,3.40504202 L11.4151261,6.38991597 C11.4151261,6.66218487 11.6369748,6.88067227 11.9092437,6.88067227 C12.1815126,6.88067227 12.4033613,6.66218487 12.4033613,6.38991597 L12.4033613,3.41512605 C14.4,3.48907563 20.1848739,4.34285714 20.292437,11.5865546 L17.2369748,11.5865546 C16.9647059,11.5865546 16.7428571,11.8084034 16.7428571,12.0773109 C16.7428571,12.3495798 16.9647059,12.5680672 17.2369748,12.5680672 L20.2621849,12.5680672 C19.8487395,19.297479 14.302521,20.0504202 12.4033613,20.1008403 M23.1630252,11.5865546 L21.2773109,11.5865546 C21.1630252,3.25042017 14.087395,2.49411765 12.4,2.4302521 L12.4,0.490756303 C12.4,0.218487395 12.1781513,0 11.9058824,0 C11.6336134,0 11.4117647,0.218487395 11.4117647,0.490756303 L11.4117647,2.42016807 C9.89579832,2.43361345 2.61512605,2.97478992 2.53109244,11.5865546 L0.521008403,11.5865546 C0.248739496,11.5865546 0.0268907563,11.8084034 0.0268907563,12.0773109 C0.0268907563,12.3462185 0.248739496,12.5680672 0.521008403,12.5680672 L2.56806723,12.5680672 C3.03529412,20.410084 9.82521008,21.0487395 11.4084034,21.0890756 L11.4084034,23.1294118 C11.4084034,23.4016807 11.6302521,23.6201681 11.902521,23.6201681 C12.1747899,23.6201681 12.3966387,23.4016807 12.3966387,23.1294118 L12.3966387,21.0823529 C13.9831933,21.0386555 20.7966387,20.3798319 21.2403361,12.5647059 L23.1563025,12.5647059 C23.4285714,12.5647059 23.650569,12.3462185 23.650569,12.0739496 C23.6571429,11.8084034 23.4352941,11.5865546 23.1630252,11.5865546" id="Focus-enfoque_1Light"></path>
        </g>
    </g>
</svg>

<svg width="24" height="24" viewBox="0 0 24 24" xmlns="http://www.w3.org/2000/svg"><path d="M12.403 20.1v-2.866a.492.492 0 00-.494-.491.492.492 0 00-.494.49v2.875c-1.889-.044-7.422-.78-7.855-7.537h2.894a.492.492 0 00.494-.49.492.492 0 00-.494-.491H3.523C3.6 4.1 9.539 3.429 11.415 3.405V6.39c0 .272.222.49.494.49a.492.492 0 00.494-.49V3.415c1.997.074 7.782.928 7.89 8.172h-3.056a.494.494 0 00-.494.49c0 .273.222.491.494.491h3.025c-.413 6.73-5.96 7.482-7.859 7.533m10.76-8.514h-1.886c-.114-8.337-7.19-9.093-8.877-9.157V.49a.492.492 0 00-.494-.49.492.492 0 00-.494.49v1.93c-1.516.014-8.797.555-8.88 9.167H.52a.494.494 0 00-.494.49c0 .27.222.491.494.491h2.047c.467 7.842 7.257 8.48 8.84 8.521v2.04c0 .273.222.491.495.491a.492.492 0 00.494-.49v-2.048c1.586-.043 8.4-.702 8.843-8.517h1.916a.492.492 0 00.495-.491.484.484 0 00-.488-.487" fill="#5CB615" fill-rule="nonzero"/></svg>
